src/assets/outline/TagUser.svg

<svg width="24" height="24" viewBox="0 0 24 24"  xmlns="http://www.w3.org/2000/svg">
<path d="M12 22.75C11.3 22.75 10.59 22.48 10.06 21.95L8.34998 20.26C7.92998 19.84 7.35001 19.61 6.76001 19.61H6C3.93 19.61 2.25 17.94 2.25 15.89V4.97C2.25 2.92 3.93 1.25 6 1.25H18C20.07 1.25 21.75 2.92 21.75 4.97V15.88C21.75 17.93 20.07 19.6 18 19.6H17.24C16.65 19.6 16.07 19.84 15.65 20.25L13.94 21.94C13.41 22.48 12.7 22.75 12 22.75ZM6 2.75C4.76 2.75 3.75 3.75 3.75 4.97V15.88C3.75 17.11 4.76 18.1 6 18.1H6.76001C7.75001 18.1 8.70997 18.5 9.40997 19.19L11.12 20.88C11.61 21.36 12.4 21.36 12.89 20.88L14.6 19.19C15.3 18.5 16.26 18.1 17.25 18.1H18C19.24 18.1 20.25 17.1 20.25 15.88V4.97C20.25 3.74 19.24 2.75 18 2.75H6Z" />
<path d="M12.0698 9.6998C12.0498 9.6998 12.0198 9.6998 11.9998 9.6998C11.9698 9.6998 11.9298 9.6998 11.8998 9.6998C10.4398 9.6498 9.2998 8.4698 9.2998 6.9998C9.2998 5.5098 10.5098 4.2998 11.9998 4.2998C13.4898 4.2998 14.6998 5.5098 14.6998 6.9998C14.6898 8.4698 13.5498 9.6498 12.0898 9.6998C12.0898 9.6998 12.0798 9.6998 12.0698 9.6998ZM11.9998 5.7998C11.3398 5.7998 10.7998 6.3398 10.7998 6.9998C10.7998 7.6498 11.3098 8.1798 11.9498 8.1998C11.9498 8.1898 12.0098 8.1898 12.0798 8.1998C12.7098 8.1598 13.1998 7.6398 13.1998 6.9998C13.1998 6.3398 12.6598 5.7998 11.9998 5.7998Z" />
<path d="M12 16.7001C10.86 16.7001 9.72002 16.4001 8.83002 15.8101C7.99002 15.2501 7.5 14.4401 7.5 13.5801C7.5 12.7201 7.98002 11.9001 8.83002 11.3401C10.61 10.1601 13.39 10.1601 15.16 11.3401C16 11.9001 16.49 12.7201 16.49 13.5701C16.49 14.4301 16.01 15.2401 15.16 15.8101C14.28 16.4101 13.14 16.7001 12 16.7001ZM9.65997 12.5901C9.22997 12.8801 9 13.2301 9 13.5801C9 13.9301 9.23997 14.2801 9.65997 14.5701C10.93 15.4201 13.06 15.4201 14.33 14.5701C14.76 14.2801 15 13.9301 14.99 13.5801C14.99 13.2301 14.75 12.8801 14.33 12.5901C13.07 11.7401 10.93 11.7401 9.65997 12.5901Z" />
</svg>

<?xml version="1.0" encoding="UTF-8"?>
<svg width="24" height="24" viewBox="0 0 24 24" xmlns="http://www.w3.org/2000/svg">
 <path d="m12 22.75c-0.7 0-1.41-0.27-1.94-0.8l-1.71-1.69c-0.42-0.42-0.99997-0.65-1.59-0.65h-0.76001c-2.07 0-3.75-1.67-3.75-3.72v-10.92c0-2.05 1.68-3.72 3.75-3.72h12c2.07 0 3.75 1.67 3.75 3.72v10.91c0 2.05-1.68 3.72-3.75 3.72h-0.76c-0.59 0-1.17 0.24-1.59 0.65l-1.71 1.69c-0.53 0.54-1.24 0.81-1.94 0.81zm-6-20c-1.24 0-2.25 1-2.25 2.22v10.91c0 1.23 1.01 2.22 2.25 2.22h0.76001c0.99 0 1.95 0.4 2.65 1.09l1.71 1.69c0.49 0.48 1.28 0.48 1.77 0l1.71-1.69c0.7-0.69 1.66-1.09 2.65-1.09h0.75c1.24 0 2.25-1 2.25-2.22v-10.91c0-1.23-1.01-2.22-2.25-2.22h-12z"/>
 <path d="m12.07 9.6998h-0.07-0.1c-1.46-0.05-2.6-1.23-2.6-2.7 0-1.49 1.21-2.7 2.7-2.7s2.7 1.21 2.7 2.7c-0.01 1.47-1.15 2.65-2.61 2.7h-0.02zm-0.07-3.9c-0.66 0-1.2 0.54-1.2 1.2 0 0.65 0.51 1.18 1.15 1.2 0-0.01 0.06-0.01 0.13 0 0.63-0.04 1.12-0.56 1.12-1.2 0-0.66-0.54-1.2-1.2-1.2z"/>
 <path d="m12 16.7c-1.14 0-2.28-0.3-3.17-0.89-0.84-0.56-1.33-1.37-1.33-2.23s0.48002-1.68 1.33-2.24c1.78-1.18 4.56-1.18 6.33 0 0.84 0.56 1.33 1.38 1.33 2.23 0 0.86-0.48 1.67-1.33 2.24-0.88 0.6-2.02 0.89-3.16 0.89zm-2.34-4.11c-0.43 0.29-0.65997 0.64-0.65997 0.99s0.23997 0.7 0.65997 0.99c1.27 0.85 3.4 0.85 4.67 0 0.43-0.29 0.67-0.64 0.66-0.99 0-0.35-0.24-0.7-0.66-0.99-1.26-0.85-3.4-0.85-4.67 0z"/>
</svg>
